dist/intermediate-svg/eventIcon--meet.svg

<?xml version="1.0" encoding="utf-8"?><svg xmlns="http://www.w3.org/2000/svg" viewBox="0 0 12.44 16" width="12.44" height="16"><path d="M3 1.86C2.87.75 4.22.1 4.4 0a.58.58 0 01.76.3.58.58 0 01-.29.76c-.35.18-.71.41-.71.59s.3.23.42.35a1.8 1.8 0 01.88 1.11C5.57 4.27 4.22 4.91 4.05 5a.36.36 0 01-.24 0 .52.52 0 01-.53-.35.58.58 0 01.3-.76c.35-.18.7-.41.7-.59S4 3.1 3.87 3A1.85 1.85 0 013 1.86zm9.45 6.51v1.18a1.62 1.62 0 01-.83 1.35l-1.87.94a5 5 0 01-.88 1.23H2.52a4.1 4.1 0 01-1.23-2.94v-3.4A.71.71 0 012 6h7.33a.71.71 0 01.7.7v.5h1.17a1.19 1.19 0 011.24 1.17zm-1.18 0h-1.18v2l1-.47a.44.44 0 00.17-.35zM6.8 3c.12.12.36.23.42.35a1.52 1.52 0 01-.71.59.58.58 0 00-.29.76.57.57 0 00.53.3A.35.35 0 007 5c.18-.06 1.53-.7 1.41-1.82-.06-.52-.53-.82-.88-1.11-.12-.12-.35-.24-.41-.35a1.48 1.48 0 01.7-.59A.58.58 0 007.33 0c-.17.1-1.52.75-1.41 1.86A1.85 1.85 0 006.8 3zm4.52 11.26H.59a.59.59 0 00-.47.94l.58.8h10.56l.59-.82a.63.63 0 00-.53-.94z" fill="#333"/></svg>

<?xml version="1.0" encoding="utf-8"?><svg xmlns="http://www.w3.org/2000/svg" viewBox="0 0 12.44 16" width="12.44" height="16"><path d="M3,1.86C2.87.75,4.22.1,4.4,0a.58.58,0,0,1,.76.3.58.58,0,0,1-.29.76c-.35.18-.71.41-.71.59s.3.23.42.35a1.8,1.8,0,0,1,.88,1.11C5.57,4.27,4.22,4.91,4.05,5A.36.36,0,0,1,3.81,5a.52.52,0,0,1-.53-.35.58.58,0,0,1,.3-.76c.35-.18.7-.41.7-.59S4,3.1,3.87,3A1.85,1.85,0,0,1,3,1.86Zm9.45,6.51V9.55a1.62,1.62,0,0,1-.83,1.35l-1.87.94a5,5,0,0,1-.88,1.23H2.52a4.1,4.1,0,0,1-1.23-2.94V6.73A.71.71,0,0,1,2,6H9.33a.71.71,0,0,1,.7.7V7.2H11.2A1.19,1.19,0,0,1,12.44,8.37Zm-1.18,0H10.09v2l1-.47a.44.44,0,0,0,.17-.35ZM6.8,3c.12.12.36.23.42.35a1.52,1.52,0,0,1-.71.59.58.58,0,0,0-.29.76A.57.57,0,0,0,6.75,5,.35.35,0,0,0,7,5c.18-.06,1.53-.7,1.41-1.82-.06-.52-.53-.82-.88-1.11-.12-.12-.35-.24-.41-.35a1.48,1.48,0,0,1,.7-.59A.58.58,0,0,0,7.33,0C7.16.1,5.81.75,5.92,1.86A1.85,1.85,0,0,0,6.8,3Zm4.52,11.26H.59a.59.59,0,0,0-.47.94L.7,16H11.26l.59-.82A.63.63,0,0,0,11.32,14.24Z" fill="#333"/></svg>
